packages/components/src/product-icon/images/jetpack-scan-v2-darkblue.svg

<svg width="55" height="55" viewBox="0 0 55 55" fill="none" xmlns="http://www.w3.org/2000/svg">
<ellipse cx="27.5" cy="27.7024" rx="27.5" ry="27.2308" fill="#2271B1"/>
<mask id="mask0" mask-type="alpha" maskUnits="userSpaceOnUse" x="17" y="14" width="22" height="26">
<path fill-rule="evenodd" clip-rule="evenodd" d="M17.5 19.1205L28 14.4995L38.5 19.1205V26.052C38.5 32.4636 34.02 38.4593 28 39.9149C21.98 38.4593 17.5 32.4636 17.5 26.052V19.1205ZM36.1667 27.1956H28V17.0295L19.8333 20.6223V27.2072H28V37.5235C32.34 36.195 35.5483 31.9553 36.1667 27.1956Z" fill="#fff"/>
</mask>
<g mask="url(#mask0)">
<rect x="14" y="13.3442" width="28" height="27.7259" fill="#fff"/>
</g>
</svg>

<svg width="55" height="55" fill="none" xmlns="http://www.w3.org/2000/svg"><ellipse cx="27.5" cy="27.702" rx="27.5" ry="27.231" fill="#2271B1"/><mask id="a" maskUnits="userSpaceOnUse" x="17" y="14" width="22" height="26"><path fill-rule="evenodd" clip-rule="evenodd" d="M17.5 19.12L28 14.5l10.5 4.62v6.932c0 6.412-4.48 12.407-10.5 13.863-6.02-1.456-10.5-7.451-10.5-13.863v-6.931zm18.667 8.076H28V17.029l-8.167 3.593v6.585H28v10.316c4.34-1.328 7.548-5.568 8.167-10.327z" fill="#fff"/></mask><g mask="url(#a)"><path fill="#fff" d="M14 13.344h28V41.07H14z"/></g></svg>
